X:1
T:THAT HYPNOTIZING MAN
T:THAT HYPNOTIZING MAN
T:ALBERT Von TILZER.
T:LEW BROWN.
T:1911
T:1911
T:1911
T:1911
T:1911
C:ALBERT Von TILZER.
Z:LEW BROWN.
Z:1911
%%score 1 { 2 | 3 }
L:1/8
Q:1/4=114
M:2/4
K:F
V:1 treble nm="Voice"
V:2 treble nm="Piano"
V:3 bass 
V:1
"^Moderato" z4 | z4 | z4 | z4 | z4 | z4 | z4 | z4 |: z4 | z4 :| DF/E/ DF/E/ | DF/E/ D/E/F/G/ | %12
w: ||||||||||When you feel queer and you|hear some- one whis- per in your|
w: ||||||||||||
w: ||||||||||Hark I can hear ve- ry|clear that same voice ring in my|
 (A4 | A/)^G/A/G/ A2 | GB/A/ GB/A/ | GB/A/ G/A/G/F/ | (E4 | E2) z2 | FA/G/ FA/G/ | FA/G/ F/G/A/B/ | %20
w: ear,|_ Come ov- er here:|Don't make a sound for you'll|know that you've found a man to|fear,|_|Your eyes grow dim and your|head starts to swim and then you|
w: ||||||||
w: ear,|_ Come ov- er here:|Take him a- way can't you|hear what I say? I'm full of|fear,|_|I feel so strange and I|know by this change that he is|
 (c4 | ^c4) | d/d(d/ d/)c/A | B/B(B/ B/)A/G | A/A(A/ A/)G/E | F/F(F/ F/)E/D | BA GA | BA GB | %28
w: stare,|_|From your head * to toes,|that strange feel- * ing flows,|Then your eyes * will close,|and you start * to doze,|With his hands he|just com- mands you|
w: ||||||||
w: near,|_|Seems I've got * to stay|and I must * o- bey.|For I hear * him say,|you are mine * to day,|While his eyes grow|twice their size you|
 A2 A2 | A2 A2 |:"^REFRAIN (Not fast)" (d4 | d)^c/(d/ d/)c/=c/B/ | (A4 | A2) z2 | (G4 | %35
w: sleep, sleep,|sleep, sleep.|Oh!|_ that hyp- * no- tiz- ing|man,|_|Oh!|
w: |||||||
w: sleep, sleep,|sleep, sleep.||||||
 G)^F/(G/ G/)F/=F/E/ | (D4 | D2) z2 | dd dd | d/c/B/(G/ G) z | AA AA | A/G/F/(D/ D2) | E2 AA | %43
w: _ that hyp- * no- tiz- ing|man:|_|When he makes those|mo- tions at you _|Ev' ry thing he|bids you must do, _|Look out he'll|
w: ||||||||
w: ||||||||
 =B/^c(B/ B/)^G/E | AB/A/ GA/G/ | FG/F/ E z | (d4 | d)^c/(d/ d/)c/=c/B/ | (A4 | A2) z2 | (G4 | %51
w: get you if _ _ he|can keep a- wake, keep a-|wake, keep a- wake,|Oh!|_ those won- * der- ful *|eyes|_|How|
w: ||||||||
w: ||||||||
 G)^F/(G/ G/)F/=F/E/ | (D4 | D2) z2 | dd dd | d/c/B/(G/ A)A | AA A/A/A/A/ | A/G/F/(D/ D) z | %58
w: _ they seem * to tan- tal-|ize,|_|When that feel- ing|o'er you does creep, * Your|eyes are o- oen but you're|fa st a sleep, *|
w: |||||||
w: |||||||
 z B/B/ z2 | z/ =B/B/B/ B z | z c/c/ c z | z/ ^c/c/c/ c z | z d d/^c/=B/c/ | d4 :| (d2 d) z |] %65
w: That stare,|is ov er there,|have a care,|he's ev ry where,|That Hyp- no- tiz- ing|man.|man. *|
w: |||||||
w: |||||||
V:2
!f! (d[FA]/^G/ [FA][FA]/G/ | [FAd])^c/([FAd]/ [FAd]/)c/[FAd]/B/ | (A>[DF] E/[DF]/[DF]/E/ | %3
 ([DFA])[DF]/E/!<(! [DFA]) z!<)! | z [DEG]/[DEG]/ [DEG] z | z!<(! [DE^G]/[DEG]/ [DEG]!<)! z | %6
 z !^![DEB] !^![DFA]!^![DF^G] | [^CEA]2 [A^cea] z |: F/E/[^G,D] F/D/ z | %9
 ([A,D]/E/F/G/ [A,A])[A,^CGA] :|!p! [A,D]F/E/ [^G,D]F/E/ | [A,D]F/E/ [A,D]/E/F/G/ | %12
 (A2 [DF]/[DF]/[DF]/[DF]/ | [DFA]/)^G/A/G/ A[DF] | [DG]B/A/ [^CG]B/A/ | [DG]B/A/ [DF]/A/G/F/ | %16
 (E(D ^C)D | [^CE])(D!<(! [CE])[B,=C]!<)! | [A,F]A/G/ [B,F]A/G/ | [A,F]A/G/ ([CF]/G/A/B/) | %20
 (c[CFA]/[CFA]/ [CF][CFA] | ^c)[^CG]/[CGA]/ [CGA][CG] | [^Fd]/[Fd]([Fd]/ [Fd]/)c/[FA] | %23
 [DGB]/[DGB]([DGB]/ [DGB]/)A/[DG] | [^CGA]/[CGA]([CGA]/ [CGA]/)G/[CE] | [DF]/[DF]([DF]/ [DF]/)E/D | %26
 !>![DB]!>![DB] !>![DG]!>![DA] | !>![DB]!>![DA] !>![DG]!>![DFB] | z [GA] z"_poco rit" [^CGA] | %29
 z [DFA] z [^CGA] |:!p! (d2!f! [FA]/^G/[FA]/[FA]/4G/4 | [FAd])^c/[FAd]/ [FAd]/c/[FA=c]/B/ | %32
 (A[DF]/E/ [DF][DF]/E/ | [DFA])[DF]/E/ [DF]/E/[DF] | (G[B,D]/^C/ [B,D][B,D] | %35
 [A,^CG])^F/(G/ G/)F/[A,C=F]/E/ | (D[FA]/^G/ [FA][FA]/G/ | [DFA])[FA]/^G/ [FA]/G/[FA] | %38
 [Fd][Fd] [Fd][Fd] | [Gd]/c/B/(G/ G/)^F/G/_A/ | [^CGA][CGA] [CGA][CGA] | [DA]/G/F/(D/ D/)^C/D/^D/ | %42
"_cresc." E[A,^C] A[A,C] | [D^G=B]/[EG^c]([D=GB]/ [DGB]/)G/[DE] | [^CG]B/A/ GA/G/ | %45
 [DF]G/F/ [^CE]/G/A/^c/ | (d[FA]/_A/ [F=A][FA]/_A/ | [FAd])^c/[FAd]/ [FAd]/c/[FA=c]/B/ | %48
 (A[DF]/E/ [DF][DF]/E/ | [DFA])[DF]/E/ [DF]/E/[DF] | G[B,D]/^C/ [B,D][B,D] | %51
 [A,^CG]^F/[A,CG]/ F/[A,CF]/=F/E/ | (D[FA]/_A/ [F=A][FA]/_G/ | [DFA])[FA]/^G/ [FA]/G/[FA] | %54
 [^Fd][Fd] [Fd][Fd] | [Gd]/c/B/(G/ G/)^F/G/^G/ | [^CGA][CGA] [CGA][CGA] | [DA]/G/F/D/ D/^C/D | %58
 [^CEGB] z z/ z/ [CEGB] | [E^F=B] z z [DFGB] | [_E^FAc] z z [EAc] | [EGB^c] z z2 | %62
 z d ([Gd]/^c/=B/c/ | [Fd]/)^C/D/E/!<(! F/_A/=A/^c/!<)! :|!<(! [Fd]2 [Bdfb]!<)! z |] %65
V:3
 [D,,D,][F,A,] [A,,,A,,][F,A,] | [D,,D,][F,A,] [A,,,A,,][F,A,] | [D,,D,][F,A,] [A,,,A,,][F,A,] | %3
 [D,,D,][F,A,] !^![D,,D,]!^![E,,E,] | !^![G,,G,]3 [E,,E,] | [^G,,^G,]3 !^![E,,E,] | %6
 !^![G,,G,]!^![A,,A,] !^![A,,A,]!^![B,,B,] | [A,,A,]2 [A,,E,^C]2 |: A,,G,, ^F,, z | %9
 !>!F,,!>!E,, !>!D,,!>!C,, :| !>![D,,D,]!>!C, !>!=B,,!>!_B,, | !>!A,,!>!G,, !>!F,,!>!E,, | %12
 !>![D,,D,]!>!C, !>!=B,,!>!_B,, | !>!A,,!>!G,, !>!F,,!>!D,, | [G,,G,]F, E,_E, | D,C, B,,A,, | %16
 z [B,,G,] [A,,G,]B,, | [A,,G,]B,, [A,,G,]!>![C,,C,] | !>![F,,F,]!>!E, !>!D,!>!^C, | %19
 !>!C,!>!B,, !>!A,,!>!G,, |{/A,,} !>!F,!>!E, !>!D,!>!C, |{/A,,} !>!F,!>!E, !>!D,!>!C, | %22
 F,[A,C] [D,,D,][D,^F,C] | G,,[D,G,B,] [D,,D,][D,G,B,] | E,[G,A,] A,,[G,A,] | D,[F,A,] A,,[F,A,] | %26
 !>!G,!>!A, !>!B,!>!A, | !>!G,!>!A, !>!B,!>!_A, |({/A,,} !>!A,!>!B, !>!G,!>!A, | %29
 !>!F,!>!A, !>!E,!>!A,) |: [D,,D,][F,A,] A,,[F,A,] | D,[F,A,] A,,[F,A,] | [D,,D,][F,A,] A,,[F,A,] | %33
 D,[F,A,] A,,[F,A,] | G,,[E,G,] B,,[E,G,] | [A,,E,]>[A,,E,] [A,,E,][A,,,A,,] | %36
 D,,[F,A,] A,,[F,A,] | D,[F,A,] A,,[F,A,] | A,,[D,^F,C] D,,[D,F,C] | B,,[D,G,B,] [G,,G,][F,,F,] | %40
 [E,,E,][G,A,] A,,[G,A,] | [F,,F,][D,F,A,] [D,,D,][D,F,A,] | E,,E, E,,E, | E,,E, E,,E, | %44
 [A,,A,]2 _A,2 | [A,,A,]2 [A,,G,]2 | [D,,D,][F,A,] A,,[F,A,] | D,[F,A,] A,,[F,A,] | %48
 [D,,D,][F,A,] A,,[F,A,] | D,[F,A,] A,,[F,A,] | G,,[E,G,] B,,[E,G,] | %51
 [=B,,E,]>[B,,E,] [B,,E,][A,,,A,,] | [D,,D,][F,A,] A,,[F,A,] | D,[F,A,] A,,[F,A,] | %54
 A,,[D,^F,C] [D,,D,][D,F,C] | _A,,[D,G,B,] [G,,G,][F,,F,] | [E,,E,][G,A,] A,,[G,A,] | %57
 [F,,F,][D,F,A,] [D,,D,][D,F,A,] | [G,,G,] z z [G,,G,] | [^G,,^G,] z z [G,,G,] | %60
 [G,,G,]2 z !>![G,,G,] | !>![B,,B,] z z !^![B,,B,] | !^![E,,E,] z (!^![A,,A,]2 | [A,,A,]) z z2 :| %64
 [D,A,]2 [D,,A,,F,] z |] %65

